X:1
T: Irish Washerwoman
N:from the box playing of Sally Sloane
Z:Ian Hayden 2017
L:1/8
M:6/8
K:G
|:A|BGG DGG|BGB dcB|cAA FAA|cBc edc|
|BGG DGG|BGB dcB|cBc Adc|BGG G2:|
|:d|gfg def|gfg bag|fdf ede|fef agf|
|egg dgg|dgg gdB|cBc Adc|BGG G2:|
